assets/images/donate/payments/cashapp.svg

<svg width="175" height="41" viewBox="0 0 175 41" fill="none" xmlns="http://www.w3.org/2000/svg">
<path d="M66.4367 13.9233C66.2792 14.021 66.0907 14.0557 65.9087 14.0205C65.7268 13.9854 65.5648 13.8829 65.4551 13.7336C64.9118 12.9572 64.1839 12.328 63.337 11.9023C62.4901 11.4766 61.5507 11.2679 60.6031 11.2949C56.8993 11.2949 54.6214 14.2241 54.6214 18.4074C54.6214 22.5906 56.9363 25.5753 60.6401 25.5753C61.6026 25.5974 62.5549 25.3741 63.407 24.9263C64.2592 24.4786 64.9832 23.8213 65.5107 23.0163C65.6168 22.8646 65.776 22.758 65.9568 22.7178C66.1377 22.6775 66.327 22.7064 66.4876 22.7988L68.2423 23.8169C68.3321 23.869 68.41 23.9394 68.4711 24.0234C68.5321 24.1074 68.5749 24.2033 68.5967 24.3048C68.6185 24.4063 68.6188 24.5113 68.5977 24.6129C68.5765 24.7146 68.5343 24.8107 68.4738 24.8951C67.6137 26.1836 66.4403 27.2328 65.0637 27.9442C63.6871 28.6557 62.1523 29.0061 60.6031 28.9627C54.7094 28.9627 50.6953 24.6684 50.6953 18.4074C50.6953 12.1464 54.7094 7.90759 60.5429 7.90759C62.0662 7.86532 63.5767 8.19666 64.9423 8.87266C66.3079 9.54866 67.487 10.5487 68.3765 11.7854C68.4376 11.8683 68.4809 11.9629 68.5038 12.0633C68.5266 12.1637 68.5286 12.2677 68.5095 12.3688C68.4903 12.47 68.4506 12.5661 68.3927 12.6513C68.3348 12.7364 68.2599 12.8087 68.1728 12.8636L66.4367 13.9233Z" fill="white"/>
<path d="M79.4001 27.8521V27.0006C78.4742 28.1945 77.1778 28.9349 75.099 28.9349C72.0248 28.9349 69.8905 27.2551 69.8905 24.3074C69.8905 20.6378 73.1638 20.0085 75.187 19.7262C77.3491 19.4115 79.201 19.2634 79.201 17.8474C79.201 16.5934 77.7473 16.2556 76.5204 16.2556C75.1136 16.2795 73.7316 16.6296 72.4832 17.2783C72.3961 17.326 72.3003 17.3556 72.2014 17.3653C72.1026 17.3751 72.0028 17.3647 71.9081 17.3349C71.8133 17.305 71.7256 17.2564 71.6502 17.1917C71.5748 17.1271 71.5132 17.048 71.4693 16.959L70.8211 15.6448C70.7351 15.4735 70.7189 15.2756 70.7759 15.0926C70.8329 14.9097 70.9586 14.7559 71.1267 14.6637C72.8722 13.7272 74.8216 13.2345 76.8028 13.2292C80.3307 13.2292 82.8215 14.6776 82.8215 18.1806V27.8521C82.8215 28.0484 82.7435 28.2368 82.6046 28.3756C82.4657 28.5145 82.2772 28.5925 82.0808 28.5925H80.1363C79.9406 28.5912 79.7534 28.5127 79.6154 28.374C79.4775 28.2353 79.4001 28.0476 79.4001 27.8521ZM79.201 21.1653C78.5158 21.679 77.2612 21.8502 75.9231 22.0908C74.5851 22.3315 73.4786 22.6878 73.4786 24.1408C73.4786 25.4782 74.4462 26.1029 75.8398 26.1029C77.576 26.1029 79.201 25.1357 79.201 22.8868V21.1653Z" fill="white"/>
<path d="M86.0208 24.7609C86.1457 24.6142 86.323 24.522 86.5149 24.5039C86.7068 24.4857 86.8983 24.5431 87.0486 24.6637C88.2844 25.5984 89.8003 26.0877 91.3497 26.052C92.9469 26.052 94.1275 25.5383 94.1275 24.2889C94.1275 23.1505 93.0442 22.9007 90.4237 22.4657C87.6458 22.0029 84.9837 21.0774 84.9837 17.9122C84.9837 14.6128 87.831 13.2199 91.0765 13.2199C93.1118 13.1892 95.0988 13.8409 96.7202 15.0709C96.7999 15.1325 96.8661 15.2097 96.9147 15.2979C96.9633 15.386 96.9934 15.4832 97.0029 15.5834C97.0125 15.6836 97.0013 15.7846 96.9702 15.8804C96.9391 15.9761 96.8887 16.0644 96.8221 16.1399L95.8961 17.2274C95.7734 17.3732 95.5994 17.4665 95.4099 17.488C95.2205 17.5095 95.0299 17.4576 94.8776 17.343C93.747 16.5117 92.3782 16.0671 90.9746 16.0751C89.5857 16.0751 88.4144 16.4731 88.4144 17.5513C88.4144 18.7498 90.095 18.9765 91.7756 19.2588C95.3591 19.8882 97.6369 20.9108 97.6369 23.8863C97.6369 27.0191 95.1322 28.9534 91.1552 28.9534C88.9809 29.0196 86.8518 28.3239 85.1365 26.9867C85.0596 26.9241 84.996 26.8468 84.9494 26.7593C84.9029 26.6719 84.8742 26.576 84.8651 26.4773C84.8561 26.3786 84.8668 26.2791 84.8967 26.1846C84.9266 26.0901 84.9751 26.0026 85.0392 25.927L86.0208 24.7609Z" fill="white"/>
<path d="M99.8083 27.8521V9.01819C99.8083 8.82183 99.8864 8.6335 100.025 8.49465C100.164 8.3558 100.353 8.27779 100.549 8.27779H102.683C102.88 8.27779 103.068 8.3558 103.207 8.49465C103.346 8.6335 103.424 8.82183 103.424 9.01819V15.4458C103.955 14.7362 104.648 14.1644 105.445 13.7786C106.243 13.3929 107.122 13.2044 108.008 13.2292C111.17 13.2292 113.017 15.4782 113.017 18.6896V27.8521C113.017 28.0484 112.939 28.2368 112.8 28.3756C112.661 28.5145 112.473 28.5925 112.276 28.5925H110.142C109.946 28.5925 109.757 28.5145 109.618 28.3756C109.479 28.2368 109.401 28.0484 109.401 27.8521V19.5226C109.401 17.9261 108.892 16.4777 106.841 16.4777C104.906 16.4777 103.424 17.8428 103.424 20.1195V27.8521C103.424 28.0484 103.346 28.2368 103.207 28.3756C103.068 28.5145 102.88 28.5925 102.683 28.5925H100.549C100.353 28.5925 100.164 28.5145 100.025 28.3756C99.8864 28.2368 99.8083 28.0484 99.8083 27.8521Z" fill="white"/>
<path d="M136.504 28.0881L134.958 23.5578H127.198L125.661 28.0881C125.612 28.2353 125.517 28.3632 125.391 28.4538C125.264 28.5443 125.113 28.5928 124.957 28.5925H122.457C122.338 28.5926 122.22 28.5637 122.114 28.5083C122.008 28.4529 121.917 28.3726 121.848 28.2744C121.78 28.1761 121.737 28.0628 121.722 27.9442C121.707 27.8255 121.721 27.705 121.763 27.5929L128.754 8.75905C128.81 8.6211 128.906 8.50316 129.03 8.42061C129.154 8.33807 129.299 8.29475 129.448 8.2963H132.888C133.037 8.29475 133.183 8.33807 133.307 8.42061C133.431 8.50316 133.527 8.6211 133.583 8.75905L140.551 27.5976C140.592 27.7093 140.605 27.8294 140.59 27.9474C140.574 28.0655 140.531 28.1781 140.463 28.2757C140.394 28.3733 140.304 28.4531 140.198 28.5082C140.093 28.5634 139.975 28.5923 139.856 28.5925H137.208C137.053 28.5928 136.901 28.5443 136.775 28.4538C136.648 28.3632 136.554 28.2353 136.504 28.0881ZM131.124 11.5772L128.138 20.4018H133.999L131.124 11.5772Z" fill="white"/>
<path d="M145.903 14.312V15.4782C146.428 14.7495 147.126 14.1625 147.934 13.77C148.742 13.3775 149.635 13.1917 150.533 13.2292C154.635 13.2292 157.283 16.6165 157.283 21.0543C157.283 25.492 154.635 28.921 150.533 28.921C149.632 28.955 148.738 28.7648 147.93 28.3673C147.122 27.9699 146.425 27.3778 145.903 26.6443V32.8035C145.903 32.9998 145.825 33.1882 145.686 33.327C145.547 33.4659 145.358 33.5439 145.162 33.5439H143.028C142.831 33.5439 142.643 33.4659 142.504 33.327C142.365 33.1882 142.287 32.9998 142.287 32.8035V14.2935C142.287 14.0972 142.365 13.9088 142.504 13.77C142.643 13.6311 142.831 13.5531 143.028 13.5531H145.143C145.244 13.5506 145.344 13.5685 145.437 13.6057C145.53 13.643 145.615 13.6988 145.686 13.7697C145.757 13.8407 145.813 13.9254 145.85 14.0186C145.887 14.1119 145.905 14.2117 145.903 14.312ZM149.773 25.7743C152.278 25.7743 153.505 23.6411 153.505 21.0543C153.505 18.4675 152.278 16.3852 149.773 16.3852C147.268 16.3852 145.903 18.4629 145.903 21.0543C145.903 23.6457 147.241 25.7743 149.773 25.7743Z" fill="white"/>
<path d="M163.126 14.312V15.4782C163.652 14.7504 164.35 14.1641 165.158 13.7717C165.965 13.3793 166.858 13.1929 167.755 13.2292C171.853 13.2292 174.501 16.6165 174.501 21.0543C174.501 25.492 171.853 28.921 167.755 28.921C166.855 28.9538 165.962 28.763 165.154 28.3656C164.346 27.9683 163.649 27.3769 163.126 26.6443V32.8035C163.126 32.9998 163.048 33.1882 162.909 33.327C162.77 33.4659 162.581 33.5439 162.385 33.5439H160.255C160.059 33.5439 159.87 33.4659 159.731 33.327C159.592 33.1882 159.514 32.9998 159.514 32.8035V14.2935C159.514 14.1961 159.532 14.0996 159.569 14.0095C159.606 13.9194 159.661 13.8375 159.73 13.7686C159.799 13.6997 159.881 13.6452 159.971 13.6082C160.061 13.5712 160.158 13.5525 160.255 13.5531H162.385C162.484 13.5525 162.582 13.5718 162.673 13.6099C162.765 13.648 162.848 13.7042 162.917 13.7751C162.986 13.8459 163.04 13.93 163.076 14.0223C163.112 14.1145 163.129 14.2131 163.126 14.312ZM167.001 25.7743C169.505 25.7743 170.705 23.6411 170.705 21.0543C170.705 18.4675 169.482 16.3852 167.001 16.3852C164.519 16.3852 163.126 18.4629 163.126 21.0543C163.126 23.6457 164.468 25.7743 167.001 25.7743Z" fill="white"/>
<path fill-rule="evenodd" clip-rule="evenodd" d="M34.7606 1.18487C32.5799 0.5 30.5938 0.5 26.5566 0.5H14.445C10.4309 0.5 8.4216 0.5 6.278 1.16636C5.10775 1.5899 4.04496 2.26541 3.16488 3.14504C2.28481 4.02467 1.60897 5.08693 1.18521 6.25659C0.5 8.42226 0.5 10.426 0.5 14.438V26.5435C0.5 30.5787 0.5 32.5639 1.16669 34.7249C1.59045 35.8946 2.26629 36.9568 3.14637 37.8365C4.02644 38.7161 5.08923 39.3916 6.25948 39.8151C8.42623 40.5 10.4309 40.5 14.445 40.5H26.5751C30.5938 40.5 32.5985 40.5 34.7606 39.8151C35.9308 39.3916 36.9936 38.7161 37.8737 37.8365C38.7538 36.9568 39.4296 35.8946 39.8534 34.7249C40.5386 32.5592 40.5386 30.5555 40.5386 26.5435V14.4565C40.5386 10.4398 40.5386 8.43614 39.8534 6.2751C39.4296 5.10544 38.7538 4.04318 37.8737 3.16355C36.9936 2.28391 35.9308 1.60841 34.7606 1.18487ZM26.8899 15.581C25.3885 14.311 23.4861 13.6127 21.5193 13.6097C19.8988 13.6097 18.2784 14.1465 18.2784 15.6365C18.2784 16.9948 19.7212 17.5264 21.4985 18.1812C21.6708 18.2446 21.8463 18.3093 22.0239 18.376C25.538 19.5606 28.4316 21.0136 28.4316 24.4565C28.4316 28.1955 25.5287 30.7499 20.7785 31.0414L20.3479 33.0451C20.3086 33.2267 20.2081 33.3893 20.0631 33.5055C19.9181 33.6218 19.7375 33.6847 19.5516 33.6837H16.5654C16.4447 33.6808 16.3262 33.6514 16.2181 33.5976C16.1101 33.5439 16.0151 33.4671 15.9401 33.3726C15.865 33.2781 15.8116 33.1683 15.7836 33.051C15.7557 32.9336 15.7539 32.8116 15.7783 32.6934L16.2413 30.5787C14.4483 30.1217 12.8 29.2192 11.4494 27.9549C11.372 27.8802 11.3104 27.7907 11.2684 27.6917C11.2263 27.5927 11.2046 27.4863 11.2046 27.3787C11.2046 27.2712 11.2263 27.1648 11.2684 27.0658C11.3104 26.9668 11.372 26.8773 11.4494 26.8026L13.1069 25.183C13.2576 25.0349 13.4604 24.9519 13.6718 24.9519C13.8831 24.9519 14.0859 25.0349 14.2366 25.183C15.7549 26.6309 17.7821 27.4238 19.8803 27.3903C22.0424 27.3903 23.5101 26.4741 23.5101 25.021C23.5101 23.7074 22.3067 23.2675 20.0232 22.4326C19.7809 22.344 19.5264 22.251 19.2599 22.152C16.3246 21.1062 13.5468 19.6115 13.5468 16.1363C13.5468 12.115 16.908 10.1529 20.8711 9.95858L21.2878 7.91785C21.3278 7.73789 21.4281 7.57698 21.5721 7.4617C21.716 7.34643 21.895 7.2837 22.0795 7.28389H25.0565C25.1762 7.2835 25.2945 7.30981 25.4028 7.3609C25.5111 7.41198 25.6067 7.48656 25.6825 7.57919C25.7584 7.67183 25.8126 7.78021 25.8412 7.89642C25.8699 8.01264 25.8722 8.13378 25.8482 8.25103L25.3852 10.5324C26.9007 11.0276 28.3051 11.8135 29.5196 12.8461C29.6024 12.9173 29.6696 13.0048 29.7169 13.1032C29.7642 13.2016 29.7907 13.3087 29.7946 13.4178C29.7985 13.5269 29.7798 13.6356 29.7397 13.7371C29.6995 13.8386 29.6388 13.9307 29.5613 14.0076L28.0149 15.5578C27.8658 15.7045 27.6662 15.7886 27.457 15.7929C27.2478 15.7972 27.0449 15.7214 26.8899 15.581Z" fill="white"/>
</svg>

<svg width="175" height="41" fill="none" xmlns="http://www.w3.org/2000/svg"><path d="M66.437 13.923a.736.736 0 0 1-.982-.19 5.72 5.72 0 0 0-4.852-2.438c-3.704 0-5.982 2.93-5.982 7.112 0 4.184 2.315 7.168 6.02 7.168a5.668 5.668 0 0 0 4.87-2.559.74.74 0 0 1 .977-.217l1.754 1.018a.746.746 0 0 1 .232 1.078 9.152 9.152 0 0 1-7.87 4.068c-5.895 0-9.909-4.295-9.909-10.556 0-6.26 4.014-10.5 9.848-10.5a9.333 9.333 0 0 1 7.833 3.878.75.75 0 0 1-.203 1.079l-1.736 1.06zM79.4 27.853V27c-.926 1.194-2.222 1.934-4.301 1.934-3.074 0-5.209-1.68-5.209-4.628 0-3.67 3.274-4.298 5.297-4.58 2.162-.316 4.014-.464 4.014-1.88 0-1.254-1.454-1.591-2.68-1.591a9.09 9.09 0 0 0-4.038 1.022.736.736 0 0 1-1.014-.319l-.648-1.314a.74.74 0 0 1 .306-.981 12.074 12.074 0 0 1 5.676-1.435c3.528 0 6.019 1.449 6.019 4.952v9.671a.74.74 0 0 1-.741.74h-1.945a.742.742 0 0 1-.736-.74zm-.199-6.688c-.685.514-1.94.685-3.278.926-1.338.24-2.444.597-2.444 2.05 0 1.337.967 1.962 2.36 1.962 1.737 0 3.362-.967 3.362-3.216v-1.722zm6.82 3.596a.74.74 0 0 1 1.028-.097 6.868 6.868 0 0 0 4.3 1.388c1.598 0 2.778-.514 2.778-1.763 0-1.139-1.083-1.388-3.703-1.823-2.778-.463-5.44-1.389-5.44-4.554 0-3.3 2.847-4.692 6.093-4.692a9.11 9.11 0 0 1 5.643 1.85.736.736 0 0 1 .102 1.07l-.926 1.087a.745.745 0 0 1-1.018.116 6.526 6.526 0 0 0-3.903-1.268c-1.39 0-2.56.398-2.56 1.476 0 1.199 1.68 1.426 3.36 1.708 3.584.63 5.862 1.652 5.862 4.627 0 3.133-2.505 5.067-6.482 5.067a9.328 9.328 0 0 1-6.019-1.966.744.744 0 0 1-.097-1.06l.982-1.166zm13.787 3.091V9.018a.741.741 0 0 1 .741-.74h2.134a.74.74 0 0 1 .741.74v6.428a5.539 5.539 0 0 1 4.584-2.217c3.162 0 5.009 2.25 5.009 5.46v9.163a.74.74 0 0 1-.741.74h-2.134a.742.742 0 0 1-.741-.74v-8.33c0-1.596-.509-3.044-2.56-3.044-1.935 0-3.417 1.365-3.417 3.641v7.733a.74.74 0 0 1-.741.74h-2.134a.742.742 0 0 1-.74-.74zm36.696.236l-1.546-4.53h-7.76l-1.537 4.53a.739.739 0 0 1-.704.505h-2.5a.74.74 0 0 1-.694-1l6.991-18.834a.741.741 0 0 1 .694-.463h3.44a.742.742 0 0 1 .695.463l6.968 18.839a.743.743 0 0 1-.353.91.74.74 0 0 1-.342.085h-2.648a.74.74 0 0 1-.704-.505zm-5.38-16.51l-2.986 8.824h5.861l-2.875-8.825zm14.779 2.734v1.166a5.425 5.425 0 0 1 4.63-2.249c4.102 0 6.75 3.387 6.75 7.825 0 4.438-2.648 7.867-6.75 7.867a5.431 5.431 0 0 1-4.63-2.277v6.16a.74.74 0 0 1-.741.74h-2.134a.74.74 0 0 1-.741-.74v-18.51a.74.74 0 0 1 .741-.74h2.115a.742.742 0 0 1 .76.758zm3.87 11.462c2.505 0 3.732-2.133 3.732-4.72 0-2.586-1.227-4.669-3.732-4.669s-3.87 2.078-3.87 4.67c0 2.59 1.338 4.72 3.87 4.72zm13.353-11.462v1.166a5.438 5.438 0 0 1 4.629-2.249c4.098 0 6.746 3.387 6.746 7.825 0 4.438-2.648 7.867-6.746 7.867a5.442 5.442 0 0 1-4.629-2.277v6.16a.74.74 0 0 1-.741.74h-2.13a.742.742 0 0 1-.741-.74v-18.51a.747.747 0 0 1 .216-.525.739.739 0 0 1 .525-.216h2.13a.734.734 0 0 1 .741.759zm3.875 11.462c2.504 0 3.704-2.133 3.704-4.72 0-2.586-1.223-4.669-3.704-4.669-2.482 0-3.875 2.078-3.875 4.67 0 2.59 1.342 4.72 3.875 4.72z" fill="#fff"/><path fill-rule="evenodd" clip-rule="evenodd" d="M34.76 1.185C32.58.5 30.595.5 26.558.5H14.445c-4.014 0-6.023 0-8.167.666a8.492 8.492 0 0 0-5.093 5.09C.5 8.423.5 10.427.5 14.439v12.106c0 4.035 0 6.02.667 8.18a8.487 8.487 0 0 0 5.092 5.091c2.167.685 4.172.685 8.186.685h12.13c4.019 0 6.024 0 8.186-.685a8.492 8.492 0 0 0 5.092-5.09c.686-2.166.686-4.17.686-8.181V14.456c0-4.016 0-6.02-.686-8.18a8.487 8.487 0 0 0-5.092-5.091zM26.89 15.58a8.336 8.336 0 0 0-5.37-1.971c-1.621 0-3.242.537-3.242 2.027 0 1.358 1.443 1.89 3.22 2.544l.526.195c3.514 1.185 6.408 2.638 6.408 6.08 0 3.74-2.903 6.294-7.653 6.585l-.431 2.004a.81.81 0 0 1-.796.639h-2.987a.824.824 0 0 1-.787-.99l.463-2.115a10.98 10.98 0 0 1-4.792-2.624.8.8 0 0 1 0-1.152l1.658-1.62a.806.806 0 0 1 1.13 0 7.993 7.993 0 0 0 5.643 2.207c2.162 0 3.63-.916 3.63-2.369 0-1.314-1.203-1.754-3.487-2.588l-.763-.281c-2.935-1.046-5.713-2.54-5.713-6.016 0-4.021 3.361-5.983 7.324-6.177l.417-2.041a.81.81 0 0 1 .791-.634h2.977a.806.806 0 0 1 .792.967l-.463 2.281a12.263 12.263 0 0 1 4.135 2.314.791.791 0 0 1 .041 1.162l-1.546 1.55a.82.82 0 0 1-1.125.023z" fill="#fff"/></svg>
